icons/1_Primary/Active24.svg

<svg width="1024" height="1024" viewBox="0 0 1024 1024" fill="none" xmlns="http://www.w3.org/2000/svg">
<g clip-path="url(#clip0_2_1431)">
<path d="M512 1024C794.77 1024 1024 794.77 1024 512C1024 229.23 794.77 0 512 0C229.23 0 0 229.23 0 512C0 794.77 229.23 1024 512 1024Z" fill="#FF837D"/>
<path d="M702.16 582.999C700.82 588.999 688.8 593.999 675.11 593.999C670.43 593.999 666.43 596.339 665.76 599.679L664.76 605.359H698.16L697.16 611.039H647.39L649.39 600.039C650.73 594.039 662.75 589.039 676.44 589.039C681.12 589.039 685.12 586.699 685.79 583.359L688.13 572.359C688.8 569.359 685.46 566.679 680.78 566.679C676.1 566.679 672.1 569.349 671.43 572.359L670.43 578.039H653.73L654.73 572.359C656.07 566.359 668.09 561.359 681.78 561.359C695.47 561.359 705.78 566.359 704.49 572.359L702.16 582.999ZM755.93 610.719H739.23L742.57 594.019H734.22C720.53 594.019 710.22 589.019 711.51 583.019L715.85 561.019H732.55L728.21 583.019C727.54 586.019 730.88 588.699 735.56 588.699H743.91L749.25 560.979H766L755.93 610.719ZM266 575.609L262 596.609C261.33 600.609 265.34 603.609 271.35 603.609H282L288.68 568.539H278C272 568.589 266.68 571.599 266 575.609ZM577.25 568.609C571.25 568.609 565.9 571.609 565.25 575.609L563.91 582.609H584.91L586.25 575.609C586.95 571.599 583.27 568.589 577.26 568.589L577.25 568.609ZM815.38 276.379L220.26 563.919C191.21 577.919 191.54 599.989 221.26 612.679L469.73 719.879C499.12 732.569 538.86 721.219 557.23 694.879L834.41 299.089C853.11 272.369 844.43 262.349 815.38 276.379ZM438.38 547.219C439.05 544.219 445.06 541.879 451.74 541.879C458.74 541.879 463.74 544.219 463.09 547.219C462.44 550.219 456.41 552.559 449.73 552.559C443.05 552.559 438 550.229 438.34 547.219H438.38ZM301.75 610.669H280.75L282.09 604.319L273.74 610.669H270.4C252.7 610.669 239.68 604.319 241.35 596.669L245.35 575.669C246.69 567.989 262.35 561.669 279.75 561.669V561.339H311.48L301.75 610.669ZM382.9 575.599H361.9C362.9 571.599 358.9 568.599 352.9 568.599C346.9 568.599 341.55 571.599 340.9 575.599L336.9 596.599C336.23 600.599 340.24 603.599 346.25 603.599C351.93 603.599 357.25 600.599 357.94 596.599H378.94C377.27 604.279 361.94 610.599 344.54 610.599C326.84 610.599 313.82 604.249 315.49 596.599L319.49 575.599C320.83 567.919 336.49 561.599 353.89 561.599C371.29 561.599 384.23 567.929 382.9 575.609V575.599ZM425.31 568.599H414.62L408.94 596.649C408.27 600.649 412.28 603.649 418.29 603.649L416.95 610.649C399.25 610.649 386.23 604.299 387.9 596.649L396.9 550.899H417.9L415.9 561.589H426.59L425.31 568.599ZM449 610.669H428L437.68 561.579H458.68L449 610.669ZM528.17 596.999C526.5 604.679 511.17 610.999 493.77 610.999H462L471.68 561.569H492.68L484.33 603.649H495.02C500.7 603.649 506.02 600.649 506.71 596.649L514.06 561.919H535.06L528.17 596.999ZM607.32 575.629L604.65 589.629H562.23L560.89 596.629C560.22 600.629 564.23 603.629 570.24 603.629C576.25 603.629 581.59 600.629 582.24 596.629H603.24C601.57 604.309 586.24 610.629 568.84 610.629C551.14 610.629 538.12 604.279 539.79 596.629L543.79 575.629C545.13 567.949 560.79 561.629 578.19 561.629C596 561.579 608.66 567.929 607.32 575.609V575.629Z" fill="white"/>
</g>
<defs>
<clipPath id="clip0_2_1431">
<rect width="1024" height="1024" fill="white"/>
</clipPath>
</defs>
</svg>

<svg xmlns="http://www.w3.org/2000/svg" width="1024" height="1024" fill="none">
   <g clip-path="url(#a)">
      <path fill="#FF837D" d="M512 1024c282.77 0 512-229.23 512-512S794.77 0 512 0 0 229.23 0 512s229.23 512 512 512Z"/>
      <path fill="#fff" d="M702.16 582.999c-1.34 6-13.36 11-27.05 11-4.68 0-8.68 2.34-9.35 5.68l-1 5.68h33.4l-1 5.68h-49.77l2-11c1.34-6 13.36-11 27.05-11 4.68 0 8.68-2.34 9.35-5.68l2.34-11c.67-3-2.67-5.68-7.35-5.68s-8.68 2.67-9.35 5.68l-1 5.68h-16.7l1-5.68c1.34-6 13.36-11 27.05-11 13.69 0 24 5 22.71 11l-2.33 10.64Zm53.77 27.72h-16.7l3.34-16.7h-8.35c-13.69 0-24-5-22.71-11l4.34-22h16.7l-4.34 22c-.67 3 2.67 5.68 7.35 5.68h8.35l5.34-27.72H766l-10.07 49.74ZM266 575.609l-4 21c-.67 4 3.34 7 9.35 7H282l6.68-35.07H278c-6 .05-11.32 3.06-12 7.07Zm311.25-7c-6 0-11.35 3-12 7l-1.34 7h21l1.34-7c.7-4.01-2.98-7.02-8.99-7.02l-.01.02Zm238.13-292.23-595.12 287.54c-29.05 14-28.72 36.07 1 48.76l248.47 107.2c29.39 12.69 69.13 1.34 87.5-25l277.18-395.79c18.7-26.72 10.02-36.74-19.03-22.71Zm-377 270.84c.67-3 6.68-5.34 13.36-5.34 7 0 12 2.34 11.35 5.34-.65 3-6.68 5.34-13.36 5.34s-11.73-2.33-11.39-5.34h.04Zm-136.63 63.45h-21l1.34-6.35-8.35 6.35h-3.34c-17.7 0-30.72-6.35-29.05-14l4-21c1.34-7.68 17-14 34.4-14v-.33h31.73l-9.73 49.33Zm81.15-35.07h-21c1-4-3-7-9-7s-11.35 3-12 7l-4 21c-.67 4 3.34 7 9.35 7 5.68 0 11-3 11.69-7h21c-1.67 7.68-17 14-34.4 14-17.7 0-30.72-6.35-29.05-14l4-21c1.34-7.68 17-14 34.4-14s30.34 6.33 29.01 14.01v-.01Zm42.41-7h-10.69l-5.68 28.05c-.67 4 3.34 7 9.35 7l-1.34 7c-17.7 0-30.72-6.35-29.05-14l9-45.75h21l-2 10.69h10.69l-1.28 7.01Zm23.69 42.07h-21l9.68-49.09h21l-9.68 49.09Zm79.17-13.67c-1.67 7.68-17 14-34.4 14H462l9.68-49.43h21l-8.35 42.08h10.69c5.68 0 11-3 11.69-7l7.35-34.73h21l-6.89 35.08Zm79.15-21.37-2.67 14h-42.42l-1.34 7c-.67 4 3.34 7 9.35 7s11.35-3 12-7h21c-1.67 7.68-17 14-34.4 14-17.7 0-30.72-6.35-29.05-14l4-21c1.34-7.68 17-14 34.4-14 17.81-.05 30.47 6.3 29.13 13.98v.02Z"/>
   </g>
   <defs>
      <clipPath id="a">
         <path fill="#fff" d="M0 0h1024v1024H0z"/>
      </clipPath>
   </defs>
</svg>
